public/images/poses-lg/Triangle.svg

<svg width="800" height="800" fill="none" xmlns="http://www.w3.org/2000/svg"><path d="M345.799 468.421s-31.803 5.301-68.908 42.405c-37.104 37.105-66.258 92.76-66.258 92.76s-5.3 13.251-13.251 18.551c-7.951 5.301-42.405 31.804-55.656 58.307-13.251 26.503-34.454 71.557-34.454 71.557s-7.95 10.601 15.902 34.453c0 0 6.44 6.439 30.908 5.796 4.121-.106 6.58-4.703 4.373-8.182-4.969-7.841-14.078-20.473-27.33-32.067l100.71-103.361s100.711-87.459 106.012-98.06c15.658 24.603 35.42 47.792 57.472 66.818 4.789 4.129 9.56 8.342 14.894 11.773 5.837 3.759 14.727 9.84 20.395 14.169 6.655 5.073 7.588 9.499 13.223 15.456 4.78 5.058 9.96 9.744 15.219 14.3 13.47 11.667 27.734 22.457 42.4 32.566 14.833 10.217 31.151 22.034 48.42 27.786 0 0 15.902 5.301 21.202 18.551 5.302 13.25 21.203 21.203 37.105 21.203 15.902 0 23.852-2.65 47.705 0 7.449.825 26.503-5.301 18.552-7.951-7.952-2.65-74.209-29.152-82.159-31.803-6.952-2.318-143.865-153.117-177.569-190.82-4.842-5.415 5.301-13.251 5.301-13.251l-74.208-60.956Z" fill="#fff" stroke="#000" stroke-width="5" stroke-miterlimit="10"/><path d="M345.799 468.421s-31.803 5.301-68.908 42.405c-37.104 37.105-66.258 92.76-66.258 92.76s-5.3 13.251-13.251 18.551c-7.951 5.301-42.405 31.804-55.656 58.307-13.251 26.503-34.454 71.557-34.454 71.557s-7.95 10.601 15.902 34.453c0 0 6.44 6.439 30.908 5.796 4.121-.106 6.58-4.703 4.373-8.182-4.969-7.841-14.078-20.473-27.33-32.067l100.71-103.361s100.711-87.459 106.012-98.06c15.658 24.603 35.42 47.792 57.472 66.818 4.789 4.129 9.56 8.342 14.894 11.773 5.837 3.759 14.727 9.84 20.395 14.169 6.655 5.073 7.588 9.499 13.223 15.456 4.78 5.058 9.96 9.744 15.219 14.3 13.47 11.667 27.734 22.457 42.4 32.566 14.833 10.217 31.151 22.034 48.42 27.786 0 0 15.902 5.301 21.202 18.551 5.302 13.25 21.203 21.203 37.105 21.203 15.902 0 23.852-2.65 47.705 0 7.449.825 26.503-5.301 18.552-7.951-7.952-2.65-74.209-29.152-82.159-31.803-6.952-2.318-143.865-153.117-177.569-190.82-4.842-5.415 5.301-13.251 5.301-13.251l-74.208-60.956Z" stroke="#000" stroke-width="5" stroke-miterlimit="10"/><path d="M646.123 435.607c16.036 2.139 55.661-1.995 43.394-44.751-7.791-27.139-15.633-68.393 1.449-87.788 17.087-19.395-42.762-28.472-60.992.445-18.231 28.917-14.603 66.683 5.979 87.748 20.58 21.062 10.17 44.346 10.17 44.346Z" fill="#100200" stroke="#000" stroke-width="5" stroke-miterlimit="10"/><path d="M457.109 402.163c10.11-3.424 25.962-5.142 28.76-9.177 2.79-4.037 6.018-72.079 9.875-88.835 3.856-16.757 14.713-58.544 26.419-81.049 11.706-22.505 23.413-45.011 27.269-61.766 3.856-16.756-.5-51.278 23.765-49.25 34.282 2.862-5.982 42.195-9.658 56.832-3.678 14.637-20.835 72.975-27.308 91.649-6.47 18.674-9.266 22.71-9.129 50.472.137 27.764 6.317 100.862 6.317 100.862l-29.806 3.913-49.318 2.287 2.814-15.938Z" fill="#fff" stroke="#000" stroke-width="5" stroke-miterlimit="10"/><path d="M457.109 402.163c10.11-3.424 25.962-5.142 28.76-9.177 2.79-4.037 6.018-72.079 9.875-88.835 3.856-16.757 14.713-58.544 26.419-81.049 11.706-22.505 23.413-45.011 27.269-61.766 3.856-16.756-.5-51.278 23.765-49.25 34.282 2.862-5.982 42.195-9.658 56.832-3.678 14.637-20.835 72.975-27.308 91.649-6.47 18.674-9.266 22.71-9.129 50.472.137 27.764 6.317 100.862 6.317 100.862l-29.806 3.913-49.318 2.287 2.814-15.938Z" stroke="#000" stroke-width="5" stroke-miterlimit="10"/><path d="M466.63 476.248c9.393 5.202 30.798 13.608 32.869 18.197 2.076 4.589-6.222 74.531-5.249 92.271.977 17.737 4.631 62.191 12.374 87.116 7.747 24.929 15.49 49.86 16.464 67.598.977 17.739-9.14 52.213 15.123 54.239 34.28 2.861 1.224-44.047.064-59.594-1.16-15.547-8.23-77.944-11.461-98.08-3.229-20.137-5.303-24.725-.486-53.018 4.824-28.292 23.244-101.802 23.244-101.802l-28.723-9.021-48.243-10.654-5.976 12.748Z" fill="#fff" stroke="#000" stroke-width="5" stroke-miterlimit="10"/><path d="M466.63 476.248c9.393 5.202 30.798 13.608 32.869 18.197 2.076 4.589-6.222 74.531-5.249 92.271.977 17.737 4.631 62.191 12.374 87.116 7.747 24.929 15.49 49.86 16.464 67.598.977 17.739-9.14 52.213 15.123 54.239 34.28 2.861 1.224-44.047.064-59.594-1.16-15.547-8.23-77.944-11.461-98.08-3.229-20.137-5.303-24.725-.486-53.018 4.824-28.292 23.244-101.802 23.244-101.802l-28.723-9.021-48.243-10.654-5.976 12.748Z" stroke="#000" stroke-width="5" stroke-miterlimit="10"/><path d="M550.782 477.986c.587 5.188-1.348 6.823-1.348 6.823s-19.108-6.506-34.559 2.027c-15.451 8.536-17.082 28.05-17.488 32.928 0 0-61.927 1.077-77.381 9.614-34.962-14.703-60.24-34.723-74.21-60.957 12.608-3.861 48.129-33.445 61.144-42.186 13.007-8.737 50.168-24.07 50.168-24.07s17.734 5.175 39.686 7.009c21.957 1.835 36.799.618 36.799.618s-.613 7.318 6.502 10.371c7.115 3.05 43.911 3.666 56.515-.193 12.605-3.863-7.729 33.743-7.729 33.743s-38.059-9.656-38.293 7.733l-.176 7.085c-.079 3.151.017 6.325.37 9.455Z" fill="#fff" stroke="#000" stroke-width="5" stroke-miterlimit="10"/><path d="M550.782 477.986c.587 5.188-1.348 6.823-1.348 6.823s-19.108-6.506-34.559 2.027c-15.451 8.536-17.082 28.05-17.488 32.928 0 0-61.927 1.077-77.381 9.614-34.962-14.703-60.24-34.723-74.21-60.957 12.608-3.861 48.129-33.445 61.144-42.186 13.007-8.737 50.168-24.07 50.168-24.07s17.734 5.175 39.686 7.009c21.957 1.835 36.799.618 36.799.618s-.613 7.318 6.502 10.371c7.115 3.05 43.911 3.666 56.515-.193 12.605-3.863-7.729 33.743-7.729 33.743s-38.059-9.656-38.293 7.733l-.176 7.085c-.079 3.151.017 6.325.37 9.455Z" stroke="#000" stroke-width="5" stroke-miterlimit="10"/><path d="M600.417 422.582c8.634-2.004 14.877 3.673 24.538 4.978 15.342 2.07 24.533 24.203 18.695 40.49-7.705 21.508-86.171-.495-83.779-13.564 1.411-7.741 11.776-19.552 27.166-25.821 4.947-2.017 13.38-6.083 13.38-6.083Z" fill="#fff" stroke="#000" stroke-width="5" stroke-miterlimit="10"/><path d="M600.417 422.582c8.634-2.004 14.877 3.673 24.538 4.978 15.342 2.07 24.533 24.203 18.695 40.49-7.705 21.508-86.171-.495-83.779-13.564 1.411-7.741 11.776-19.552 27.166-25.821 4.947-2.017 13.38-6.083 13.38-6.083Z" stroke="#000" stroke-width="5" stroke-miterlimit="10"/><path d="M631.832 474.514c-13.625-4.335-35.447-21.755-25.86-37.633 10.777-17.849-3.127-13.381-7.218-12.94-4.093.434-13.761 7.804-14.224 5.567-.463-2.236 17.923-23.856 38.467-20.632 20.546 3.222 27.661 13.509 30.712 25.562 3.054 12.057-1.044 29.092-10.384 37.446-9.341 8.358-11.493 2.63-11.493 2.63Z" fill="#100200" stroke="#000" stroke-width="5" stroke-miterlimit="10"/><path d="M534.175 413.832c-11.561 9.783-14.287 22.633-8.722 34.583 8.334 17.894 24.168 21.354 24.168 21.354" stroke="#000" stroke-width="5" stroke-miterlimit="10"/><path d="M547.883 732.74s19.953-1.341 21.572-21.52Z" fill="#fff"/><path d="M547.883 732.74s19.953-1.341 21.572-21.52" stroke="#000" stroke-width="5" stroke-miterlimit="10"/><path d="M547.883 732.74s19.953-1.341 21.572-21.52" stroke="#000" stroke-width="5" stroke-miterlimit="10"/><path d="M121.526 721.978s7.473 18.116 24.436 14.794Z" fill="#fff"/><path d="M121.526 721.978s7.473 18.116 24.436 14.794" stroke="#000" stroke-width="5" stroke-miterlimit="10"/><path d="M121.526 721.978s7.473 18.116 24.436 14.794" stroke="#000" stroke-width="5" stroke-miterlimit="10"/></svg>

<svg width="800" height="800" viewBox="0 0 800 800" fill="none" xmlns="http://www.w3.org/2000/svg">
<path d="M345.799 468.421C345.799 468.421 313.996 473.722 276.891 510.826C239.787 547.931 210.633 603.586 210.633 603.586C210.633 603.586 205.333 616.837 197.382 622.137C189.431 627.438 154.977 653.941 141.726 680.444C128.475 706.947 107.272 752.001 107.272 752.001C107.272 752.001 99.3213 762.602 123.174 786.454C123.174 786.454 129.614 792.893 154.082 792.25C158.203 792.144 160.662 787.547 158.455 784.068C153.486 776.227 144.377 763.595 131.125 752.001L231.835 648.64C231.835 648.64 332.546 561.181 337.847 550.58C353.505 575.183 373.267 598.372 395.319 617.398C400.108 621.527 404.879 625.74 410.213 629.171C416.05 632.93 424.94 639.011 430.608 643.34C437.263 648.413 438.196 652.839 443.831 658.796C448.611 663.854 453.791 668.54 459.05 673.096C472.52 684.763 486.784 695.553 501.45 705.662C516.283 715.879 532.601 727.696 549.87 733.448C549.87 733.448 565.772 738.749 571.072 751.999C576.374 765.249 592.275 773.202 608.177 773.202C624.079 773.202 632.029 770.552 655.882 773.202C663.331 774.027 682.385 767.901 674.434 765.251C666.482 762.601 600.225 736.099 592.275 733.448C585.323 731.13 448.41 580.331 414.706 542.628C409.864 537.213 420.007 529.377 420.007 529.377L345.799 468.421Z" fill="white" stroke="black" stroke-width="5" stroke-miterlimit="10"/>
<path d="M345.799 468.421C345.799 468.421 313.996 473.722 276.891 510.826C239.787 547.931 210.633 603.586 210.633 603.586C210.633 603.586 205.333 616.837 197.382 622.137C189.431 627.438 154.977 653.941 141.726 680.444C128.475 706.947 107.272 752.001 107.272 752.001C107.272 752.001 99.3213 762.602 123.174 786.454C123.174 786.454 129.614 792.893 154.082 792.25C158.203 792.144 160.662 787.547 158.455 784.068C153.486 776.227 144.377 763.595 131.125 752.001L231.835 648.64C231.835 648.64 332.546 561.181 337.847 550.58C353.505 575.183 373.267 598.372 395.319 617.398C400.108 621.527 404.879 625.74 410.213 629.171C416.05 632.93 424.94 639.011 430.608 643.34C437.263 648.413 438.196 652.839 443.831 658.796C448.611 663.854 453.791 668.54 459.05 673.096C472.52 684.763 486.784 695.553 501.45 705.662C516.283 715.879 532.601 727.696 549.87 733.448C549.87 733.448 565.772 738.749 571.072 751.999C576.374 765.249 592.275 773.202 608.177 773.202C624.079 773.202 632.029 770.552 655.882 773.202C663.331 774.027 682.385 767.901 674.434 765.251C666.482 762.601 600.225 736.099 592.275 733.448C585.323 731.13 448.41 580.331 414.706 542.628C409.864 537.213 420.007 529.377 420.007 529.377L345.799 468.421Z" stroke="black" stroke-width="5" stroke-miterlimit="10"/>
<path d="M646.123 435.607C662.159 437.746 701.784 433.612 689.517 390.856C681.726 363.717 673.884 322.463 690.966 303.068C708.053 283.673 648.204 274.596 629.974 303.513C611.743 332.43 615.371 370.196 635.953 391.261C656.533 412.323 646.123 435.607 646.123 435.607Z" fill="#100200" stroke="black" stroke-width="5" stroke-miterlimit="10"/>
<path d="M457.109 402.163C467.219 398.739 483.071 397.021 485.869 392.986C488.659 388.949 491.887 320.907 495.744 304.151C499.6 287.394 510.457 245.607 522.163 223.102C533.869 200.597 545.576 178.091 549.432 161.336C553.288 144.58 548.932 110.058 573.197 112.086C607.479 114.948 567.215 154.281 563.539 168.918C559.861 183.555 542.704 241.893 536.231 260.567C529.761 279.241 526.965 283.277 527.102 311.039C527.239 338.803 533.419 411.901 533.419 411.901L503.613 415.814L454.295 418.101L457.109 402.163Z" fill="white" stroke="black" stroke-width="5" stroke-miterlimit="10"/>
<path d="M457.109 402.163C467.219 398.739 483.071 397.021 485.869 392.986C488.659 388.949 491.887 320.907 495.744 304.151C499.6 287.394 510.457 245.607 522.163 223.102C533.869 200.597 545.576 178.091 549.432 161.336C553.288 144.58 548.932 110.058 573.197 112.086C607.479 114.948 567.215 154.281 563.539 168.918C559.861 183.555 542.704 241.893 536.231 260.567C529.761 279.241 526.965 283.277 527.102 311.039C527.239 338.803 533.419 411.901 533.419 411.901L503.613 415.814L454.295 418.101L457.109 402.163Z" stroke="black" stroke-width="5" stroke-miterlimit="10"/>
<path d="M466.63 476.248C476.023 481.45 497.428 489.856 499.499 494.445C501.575 499.034 493.277 568.976 494.25 586.716C495.227 604.453 498.881 648.907 506.624 673.832C514.371 698.761 522.114 723.692 523.088 741.43C524.065 759.169 513.948 793.643 538.211 795.669C572.491 798.53 539.435 751.622 538.275 736.075C537.115 720.528 530.045 658.131 526.814 637.995C523.585 617.858 521.511 613.27 526.328 584.977C531.152 556.685 549.572 483.175 549.572 483.175L520.849 474.154L472.606 463.5L466.63 476.248Z" fill="white" stroke="black" stroke-width="5" stroke-miterlimit="10"/>
<path d="M466.63 476.248C476.023 481.45 497.428 489.856 499.499 494.445C501.575 499.034 493.277 568.976 494.25 586.716C495.227 604.453 498.881 648.907 506.624 673.832C514.371 698.761 522.114 723.692 523.088 741.43C524.065 759.169 513.948 793.643 538.211 795.669C572.491 798.53 539.435 751.622 538.275 736.075C537.115 720.528 530.045 658.131 526.814 637.995C523.585 617.858 521.511 613.27 526.328 584.977C531.152 556.685 549.572 483.175 549.572 483.175L520.849 474.154L472.606 463.5L466.63 476.248Z" stroke="black" stroke-width="5" stroke-miterlimit="10"/>
<path d="M550.782 477.986C551.369 483.174 549.434 484.809 549.434 484.809C549.434 484.809 530.326 478.303 514.875 486.836C499.424 495.372 497.793 514.886 497.387 519.764C497.387 519.764 435.46 520.841 420.006 529.378C385.044 514.675 359.766 494.655 345.796 468.421C358.404 464.56 393.925 434.976 406.94 426.235C419.947 417.498 457.108 402.165 457.108 402.165C457.108 402.165 474.842 407.34 496.794 409.174C518.751 411.009 533.593 409.792 533.593 409.792C533.593 409.792 532.98 417.11 540.095 420.163C547.21 423.213 584.006 423.829 596.61 419.97C609.215 416.107 588.881 453.713 588.881 453.713C588.881 453.713 550.822 444.057 550.588 461.446L550.412 468.531C550.333 471.682 550.429 474.856 550.782 477.986Z" fill="white" stroke="black" stroke-width="5" stroke-miterlimit="10"/>
<path d="M550.782 477.986C551.369 483.174 549.434 484.809 549.434 484.809C549.434 484.809 530.326 478.303 514.875 486.836C499.424 495.372 497.793 514.886 497.387 519.764C497.387 519.764 435.46 520.841 420.006 529.378C385.044 514.675 359.766 494.655 345.796 468.421C358.404 464.56 393.925 434.976 406.94 426.235C419.947 417.498 457.108 402.165 457.108 402.165C457.108 402.165 474.842 407.34 496.794 409.174C518.751 411.009 533.593 409.792 533.593 409.792C533.593 409.792 532.98 417.11 540.095 420.163C547.21 423.213 584.006 423.829 596.61 419.97C609.215 416.107 588.881 453.713 588.881 453.713C588.881 453.713 550.822 444.057 550.588 461.446L550.412 468.531C550.333 471.682 550.429 474.856 550.782 477.986Z" stroke="black" stroke-width="5" stroke-miterlimit="10"/>
<path d="M600.417 422.582C609.051 420.578 615.294 426.255 624.955 427.56C640.297 429.63 649.488 451.763 643.65 468.05C635.945 489.558 557.479 467.555 559.871 454.486C561.282 446.745 571.647 434.934 587.037 428.665C591.984 426.648 600.417 422.582 600.417 422.582Z" fill="white" stroke="black" stroke-width="5" stroke-miterlimit="10"/>
<path d="M600.417 422.582C609.051 420.578 615.294 426.255 624.955 427.56C640.297 429.63 649.488 451.763 643.65 468.05C635.945 489.558 557.479 467.555 559.871 454.486C561.282 446.745 571.647 434.934 587.037 428.665C591.984 426.648 600.417 422.582 600.417 422.582Z" stroke="black" stroke-width="5" stroke-miterlimit="10"/>
<path d="M631.832 474.514C618.207 470.179 596.385 452.759 605.972 436.881C616.749 419.032 602.845 423.5 598.754 423.941C594.661 424.375 584.993 431.745 584.53 429.508C584.067 427.272 602.453 405.652 622.997 408.876C643.543 412.098 650.658 422.385 653.709 434.438C656.763 446.495 652.665 463.53 643.325 471.884C633.984 480.242 631.832 474.514 631.832 474.514Z" fill="#100200" stroke="black" stroke-width="5" stroke-miterlimit="10"/>
<path d="M534.175 413.832C522.614 423.615 519.888 436.465 525.453 448.415C533.787 466.309 549.621 469.769 549.621 469.769" stroke="black" stroke-width="5" stroke-miterlimit="10"/>
<path d="M547.883 732.74C547.883 732.74 567.836 731.399 569.455 711.22Z" fill="white"/>
<path d="M547.883 732.74C547.883 732.74 567.836 731.399 569.455 711.22" stroke="black" stroke-width="5" stroke-miterlimit="10"/>
<path d="M547.883 732.74C547.883 732.74 567.836 731.399 569.455 711.22" stroke="black" stroke-width="5" stroke-miterlimit="10"/>
<path d="M121.526 721.978C121.526 721.978 128.999 740.094 145.962 736.772Z" fill="white"/>
<path d="M121.526 721.978C121.526 721.978 128.999 740.094 145.962 736.772" stroke="black" stroke-width="5" stroke-miterlimit="10"/>
<path d="M121.526 721.978C121.526 721.978 128.999 740.094 145.962 736.772" stroke="black" stroke-width="5" stroke-miterlimit="10"/>
</svg>
